svgs/thin/house-tree.svg

<svg xmlns="http://www.w3.org/2000/svg" viewBox="0 0 640 512"><!--! Font Awesome Pro 6.0.0-alpha3 by @fontawesome - https://fontawesome.com License - https://fontawesome.com/license (Commercial License) --><path d="M215.5 105.1C208.8 99.03 200.4 96 191.1 96S175.2 99.03 168.5 105.1L17.14 242.7C6.223 252.6 0 266.7 0 281.4l0 195.7c0 19.28 15.63 34.91 34.91 34.91h314.2c19.28 0 34.91-15.6 34.91-34.88L384 281.2c-.002-14.73-6.179-28.55-17.08-38.46L215.5 105.1zM367.1 477.1C367.1 487.5 359.5 496 349.1 496H34.91C24.48 496 16 487.5 16 477.1V281.4c0-10.22 4.338-20.03 11.9-26.91L179.3 116.9C182.8 113.7 187.3 111.1 191.1 111.1c4.713 0 9.229 1.748 12.72 4.92l151.4 137.6C363.7 261.4 367.1 271.2 368 281.3L367.1 477.1zM224 264H160C146.8 264 136 274.8 136 288v64c0 13.22 10.78 24 24 24h64c13.22 0 24-10.78 24-24V288C248 274.8 237.2 264 224 264zM232 352c0 4.5-3.5 8-8 8H160c-4.5 0-8-3.5-8-8V288c0-4.5 3.5-8 8-8h64c4.5 0 8 3.5 8 8V352zM629.9 444.1l-75.55-87.21h17.34c14.75 0 27.72-8.196 33.84-21.43c6.031-12.98 3.1-27.84-5.249-38.82l-80.65-94.91h26.03c13.19 0 24.97-7.351 29.93-18.71c4.593-10.45 2.562-22.27-5.312-30.84L439.6 10.13c-12.25-13.51-36.9-13.48-49.09-.0313L298.1 110.5C295.1 113.8 295.3 118.9 298.6 121.8c3.25 3.066 8.343 2.815 11.28-.4692l92.4-100.5c6.249-6.819 19.22-6.851 25.53 .0313l130.7 142c3.625 3.941 4.5 8.884 2.469 13.58c-1.937 4.411-6.999 9.134-15.31 9.134h-43.34c-3.125 0-5.968 1.814-7.249 4.661c-1.312 2.815-.8749 6.162 1.156 8.54l91.83 108.1c5.281 6.256 6.374 14.36 2.968 21.71c-3.531 7.633-10.78 12.17-19.34 12.17H536.8c-3.125 0-5.968 1.846-7.281 4.692c-1.312 2.847-.8124 6.194 1.25 8.571l87.05 100.5c7.78 9.009 7.062 19.93 3.75 27.12c-4.062 8.946-12.22 14.3-21.81 14.3h-175.8c-4.406 0-7.999 3.597-7.999 8.008c0 4.411 3.593 8.008 7.999 8.008h175.8c15.78 0 29.72-9.072 36.37-23.65C642.1 473.4 640.6 456.4 629.9 444.1z"/></svg>

<svg xmlns="http://www.w3.org/2000/svg" viewBox="0 0 640 512"><!-- Font Awesome Pro 6.0.0-alpha2 by @fontawesome - https://fontawesome.com License - https://fontawesome.com/license (Commercial License) --><path d="M215.477 105.078C208.82 99.025 200.408 96 191.996 96S175.17 99.025 168.514 105.078L17.139 242.691C6.223 252.617 0 266.686 0 281.438V477.09C0 496.371 15.629 512 34.908 512H349.084C368.361 512 383.99 496.4 383.992 477.121C383.996 424.539 384 328.963 384 281.281C383.998 266.551 377.783 252.627 366.883 242.717L215.477 105.078ZM367.992 477.119C367.99 487.529 359.51 496 349.084 496H34.908C24.482 496 16 487.518 16 477.09V281.438C16 271.215 20.338 261.408 27.902 254.531L179.277 116.916C182.766 113.746 187.281 111.998 191.996 111.998C196.709 111.998 201.225 113.746 204.715 116.918L356.119 254.555C363.668 261.418 367.998 271.16 368 281.281L367.992 477.119ZM224 264H160C146.781 264 136 274.781 136 288V352C136 365.219 146.781 376 160 376H224C237.219 376 248 365.219 248 352V288C248 274.781 237.219 264 224 264ZM232 352C232 356.5 228.5 360 224 360H160C155.5 360 152 356.5 152 352V288C152 283.5 155.5 280 160 280H224C228.5 280 232 283.5 232 288V352ZM629.903 444.058L554.348 356.846H571.69C586.439 356.846 599.406 348.65 605.53 335.419C611.561 322.437 609.53 307.578 600.281 296.599L519.633 201.692H545.662C558.848 201.692 570.628 194.341 575.596 182.986C580.189 172.538 578.158 160.714 570.284 152.143L439.579 10.127C427.33 -3.386 402.676 -3.355 390.49 10.096L298.125 110.539C295.125 113.793 295.344 118.86 298.593 121.832C301.843 124.897 306.936 124.647 309.874 121.363L402.27 20.888C408.52 14.069 421.487 14.037 427.799 20.919L558.504 162.966C562.129 166.908 563.004 171.85 560.973 176.542C559.035 180.953 553.973 185.676 545.662 185.676H502.322C499.198 185.676 496.354 187.491 495.073 190.337C493.761 193.153 494.198 196.5 496.229 198.877L588.064 306.953C593.344 313.209 594.438 321.311 591.032 328.662C587.501 336.294 580.252 340.83 571.69 340.83H536.819C533.694 340.83 530.851 342.676 529.538 345.522C528.226 348.369 528.726 351.716 530.788 354.093L617.842 454.568C625.622 463.577 624.903 474.494 621.591 481.689C617.529 490.635 609.374 495.984 599.781 495.984H423.987C419.581 495.984 415.988 499.581 415.988 503.992C415.988 508.403 419.581 512 423.987 512H599.781C615.561 512 629.497 502.928 636.152 488.352C642.995 473.368 640.589 456.414 629.903 444.058Z"/></svg>
